main/res/images/arnaque/EA_draw.svg

<?xml version="1.0" encoding="UTF-8" standalone="no"?>
<svg
   xmlns:dc="http://purl.org/dc/elements/1.1/"
   xmlns:cc="http://creativecommons.org/ns#"
   xmlns:rdf="http://www.w3.org/1999/02/22-rdf-syntax-ns#"
   xmlns:svg="http://www.w3.org/2000/svg"
   xmlns="http://www.w3.org/2000/svg"
   xmlns:sodipodi="http://sodipodi.sourceforge.net/DTD/sodipodi-0.dtd"
   xmlns:inkscape="http://www.inkscape.org/namespaces/inkscape"
   fill-opacity="1"
   color-rendering="auto"
   color-interpolation="auto"
   text-rendering="auto"
   stroke="black"
   stroke-linecap="square"
   width="562"
   stroke-miterlimit="10"
   shape-rendering="auto"
   stroke-opacity="1"
   fill="black"
   stroke-dasharray="none"
   font-weight="normal"
   stroke-width="1"
   height="574"
   font-family="'Dialog'"
   font-style="normal"
   stroke-linejoin="miter"
   font-size="12px"
   stroke-dashoffset="0"
   image-rendering="auto"
   version="1.1"
   id="svg164"
   sodipodi:docname="EA_draw.svg"
   inkscape:version="1.0.2 (e86c8708, 2021-01-15)">
  <metadata
     id="metadata168">
    <rdf:RDF>
      <cc:Work
         rdf:about="">
        <dc:format>image/svg+xml</dc:format>
        <dc:type
           rdf:resource="http://purl.org/dc/dcmitype/StillImage" />
      </cc:Work>
    </rdf:RDF>
  </metadata>
  <sodipodi:namedview
     pagecolor="#ffffff"
     bordercolor="#666666"
     borderopacity="1"
     objecttolerance="10"
     gridtolerance="10"
     guidetolerance="10"
     inkscape:pageopacity="0"
     inkscape:pageshadow="2"
     inkscape:window-width="710"
     inkscape:window-height="824"
     id="namedview166"
     showgrid="false"
     inkscape:zoom="1.1132404"
     inkscape:cx="217.32493"
     inkscape:cy="403.10627"
     inkscape:window-x="0"
     inkscape:window-y="105"
     inkscape:window-maximized="0"
     inkscape:current-layer="svg164" />
  <!--Generated by ySVG 2.5-->
  <defs
     id="genericDefs" />
  <g
     id="g162"
     transform="matrix(0.61319678,0,0,0.98435055,5.3896692,2.6948345)">
    <defs
       id="defs1">
      <clipPath
         clipPathUnits="userSpaceOnUse"
         id="clipPath1">
        <path
           d="M 0,0 H 562 V 574 H 0 Z"
           id="path83" />
      </clipPath>
      <clipPath
         clipPathUnits="userSpaceOnUse"
         id="clipPath2">
        <path
           d="M 202,59 H 764 V 633 H 202 Z"
           id="path86" />
      </clipPath>
    </defs>
    <g
       fill="#ffffff"
       text-rendering="geometricPrecision"
       shape-rendering="geometricPrecision"
       transform="translate(-202,-59)"
       stroke="#ffffff"
       id="g92">
      <rect
         x="202"
         width="562"
         height="574"
         y="59"
         clip-path="url(#clipPath2)"
         stroke="none"
         id="rect90" />
    </g>
    <g
       text-rendering="geometricPrecision"
       stroke-miterlimit="1.45"
       shape-rendering="geometricPrecision"
       transform="translate(-202,-59)"
       stroke-linecap="butt"
       id="g98">
      <rect
         x="254"
         y="74"
         clip-path="url(#clipPath2)"
         fill="none"
         width="241"
         rx="4"
         ry="4"
         height="77"
         id="rect94" />
      <text
         x="308.15359"
         font-size="15px"
         y="118.1689"
         clip-path="url(#clipPath2)"
         font-family="sans-serif"
         stroke="none"
         font-weight="bold"
         xml:space="preserve"
         id="text96">Initial population</text>
    </g>
    <g
       fill="#99cc00"
       text-rendering="geometricPrecision"
       shape-rendering="geometricPrecision"
       transform="translate(-202,-59)"
       stroke="#99cc00"
       id="g102">
      <ellipse
         rx="21"
         ry="20"
         clip-path="url(#clipPath2)"
         cx="681.5"
         cy="598"
         stroke="none"
         id="ellipse100" />
    </g>
    <g
       text-rendering="geometricPrecision"
       stroke-miterlimit="1.45"
       shape-rendering="geometricPrecision"
       transform="translate(-202,-59)"
       stroke-linecap="butt"
       id="g160">
      <ellipse
         rx="21"
         fill="none"
         ry="20"
         clip-path="url(#clipPath2)"
         cx="681.5"
         cy="598"
         id="ellipse104" />
      <text
         x="665.28418"
         font-size="15px"
         y="603.66888"
         clip-path="url(#clipPath2)"
         font-family="sans-serif"
         stroke="none"
         font-weight="bold"
         xml:space="preserve"
         id="text106">END</text>
      <text
         x="484.3804"
         font-size="15px"
         y="217.83591"
         clip-path="url(#clipPath2)"
         font-family="sans-serif"
         stroke="none"
         font-weight="bold"
         xml:space="preserve"
         id="text108">LOOP</text>
      <rect
         x="217"
         y="201.334"
         clip-path="url(#clipPath2)"
         fill="none"
         width="312"
         stroke-dasharray="6, 2"
         rx="4"
         ry="4"
         height="339.66599"
         id="rect110" />
      <rect
         x="254"
         y="238"
         clip-path="url(#clipPath2)"
         fill="none"
         width="241"
         rx="4"
         ry="4"
         height="66"
         id="rect112" />
      <text
         x="339.80151"
         font-size="15px"
         y="276.66891"
         clip-path="url(#clipPath2)"
         font-family="sans-serif"
         stroke="none"
         font-weight="bold"
         xml:space="preserve"
         id="text114">Selection</text>
      <rect
         x="254"
         y="340"
         clip-path="url(#clipPath2)"
         fill="none"
         width="241"
         rx="4"
         ry="4"
         height="66"
         id="rect116" />
      <text
         x="306.0845"
         font-size="15px"
         y="369.83591"
         clip-path="url(#clipPath2)"
         font-family="sans-serif"
         stroke="none"
         font-weight="bold"
         xml:space="preserve"
         id="text118">Genetic operation</text>
      <text
         x="292.14279"
         font-size="15px"
         y="387.50201"
         clip-path="url(#clipPath2)"
         font-family="sans-serif"
         stroke="none"
         font-weight="bold"
         xml:space="preserve"
         id="text120">(mutation/crossover)</text>
      <rect
         x="254"
         y="442"
         clip-path="url(#clipPath2)"
         fill="none"
         width="241"
         rx="4"
         ry="4"
         height="66"
         id="rect122" />
      <text
         x="304.22049"
         font-size="15px"
         y="480.66891"
         clip-path="url(#clipPath2)"
         font-family="sans-serif"
         stroke="none"
         font-weight="bold"
         xml:space="preserve"
         id="text124">Fitness evaluation</text>
      <path
         fill="none"
         d="m 614.5,475 67,-54.5 67,54.5 -67,54.5 z"
         clip-path="url(#clipPath2)"
         fill-rule="evenodd"
         id="path126" />
      <text
         x="631.80878"
         font-size="15px"
         y="471.83591"
         clip-path="url(#clipPath2)"
         font-family="sans-serif"
         stroke="none"
         font-weight="bold"
         xml:space="preserve"
         id="text128">Termination </text>
      <text
         x="645.19019"
         font-size="15px"
         y="489.50201"
         clip-path="url(#clipPath2)"
         font-family="sans-serif"
         stroke="none"
         font-weight="bold"
         xml:space="preserve"
         id="text130">condition</text>
      <text
         x="687.85229"
         font-size="15px"
         y="411.16891"
         clip-path="url(#clipPath2)"
         font-family="sans-serif"
         font-style="italic"
         stroke="none"
         xml:space="preserve"
         id="text132">No</text>
      <text
         x="689.32538"
         font-size="15px"
         y="550.16888"
         clip-path="url(#clipPath2)"
         font-family="sans-serif"
         font-style="italic"
         stroke="none"
         xml:space="preserve"
         id="text134">Yes</text>
      <path
         fill="none"
         d="m 374.5,151.0028 v 78.9804"
         clip-path="url(#clipPath2)"
         id="path136" />
      <path
         d="m 374.5,237.9832 5,-12 -5,3 -5,-3 z"
         clip-path="url(#clipPath2)"
         stroke="none"
         id="path138" />
      <path
         fill="none"
         d="m 374.5,304.0205 v 28.0054"
         clip-path="url(#clipPath2)"
         id="path140" />
      <path
         d="m 374.5,340.0259 5,-12 -5,3 -5,-3 z"
         clip-path="url(#clipPath2)"
         stroke="none"
         id="path142" />
      <path
         fill="none"
         d="m 374.5,406.0205 v 28.0054"
         clip-path="url(#clipPath2)"
         id="path144" />
      <path
         d="m 374.5,442.0259 5,-12 -5,3 -5,-3 z"
         clip-path="url(#clipPath2)"
         stroke="none"
         id="path146" />
      <path
         fill="none"
         d="M 494.984,475 H 606.5164"
         clip-path="url(#clipPath2)"
         id="path148" />
      <path
         d="m 614.5164,475 -12,-5 3,5 -3,5 z"
         clip-path="url(#clipPath2)"
         stroke="none"
         id="path150" />
      <path
         fill="none"
         d="M 681.5,420.4639 V 271 H 677 502.9904"
         clip-path="url(#clipPath2)"
         id="path152" />
      <path
         d="m 494.9904,271 12,5 -3,-5 3,-5 z"
         clip-path="url(#clipPath2)"
         stroke="none"
         id="path154" />
      <path
         fill="none"
         d="M 681.5,529.5032 V 570"
         clip-path="url(#clipPath2)"
         id="path156" />
      <path
         d="m 681.5,578 5,-12 -5,3 -5,-3 z"
         clip-path="url(#clipPath2)"
         stroke="none"
         id="path158" />
    </g>
  </g>
</svg>

<?xml version="1.0" encoding="UTF-8"?><svg xmlns="http://www.w3.org/2000/svg" xmlns:xlink="http://www.w3.org/1999/xlink" fill-opacity="1" color-rendering="auto" color-interpolation="auto" text-rendering="auto" stroke="black" stroke-linecap="square" width="562" stroke-miterlimit="10" shape-rendering="auto" stroke-opacity="1" fill="black" stroke-dasharray="none" font-weight="normal" stroke-width="1" height="574" font-family="'Dialog'" font-style="normal" stroke-linejoin="miter" font-size="12px" stroke-dashoffset="0" image-rendering="auto">
  <!--Generated by ySVG 2.5-->
  <defs id="genericDefs"/>
  <g>
    <defs id="defs1">
      <clipPath clipPathUnits="userSpaceOnUse" id="clipPath1">
        <path d="M0 0 L562 0 L562 574 L0 574 L0 0 Z"/>
      </clipPath>
      <clipPath clipPathUnits="userSpaceOnUse" id="clipPath2">
        <path d="M202 59 L764 59 L764 633 L202 633 L202 59 Z"/>
      </clipPath>
    </defs>
    <g fill="white" text-rendering="geometricPrecision" shape-rendering="geometricPrecision" transform="translate(-202,-59)" stroke="white">
      <rect x="202" width="562" height="574" y="59" clip-path="url(#clipPath2)" stroke="none"/>
    </g>
    <g text-rendering="geometricPrecision" stroke-miterlimit="1.45" shape-rendering="geometricPrecision" transform="matrix(1,0,0,1,-202,-59)" stroke-linecap="butt">
      <rect x="254" y="74" clip-path="url(#clipPath2)" fill="none" width="241" rx="4" ry="4" height="77"/>
      <text x="308.1536" font-size="15px" y="118.1689" clip-path="url(#clipPath2)" font-family="sans-serif" stroke="none" font-weight="bold" xml:space="preserve">Initial population</text>
    </g>
    <g fill="rgb(153,204,0)" text-rendering="geometricPrecision" shape-rendering="geometricPrecision" transform="matrix(1,0,0,1,-202,-59)" stroke="rgb(153,204,0)">
      <ellipse rx="21" ry="20" clip-path="url(#clipPath2)" cx="681.5" cy="598" stroke="none"/>
    </g>
    <g text-rendering="geometricPrecision" stroke-miterlimit="1.45" shape-rendering="geometricPrecision" transform="matrix(1,0,0,1,-202,-59)" stroke-linecap="butt">
      <ellipse rx="21" fill="none" ry="20" clip-path="url(#clipPath2)" cx="681.5" cy="598"/>
      <text x="665.2842" font-size="15px" y="603.6689" clip-path="url(#clipPath2)" font-family="sans-serif" stroke="none" font-weight="bold" xml:space="preserve">END</text>
      <text x="484.3804" font-size="15px" y="217.8359" clip-path="url(#clipPath2)" font-family="sans-serif" stroke="none" font-weight="bold" xml:space="preserve">LOOP</text>
      <rect x="217" y="201.334" clip-path="url(#clipPath2)" fill="none" width="312" stroke-dasharray="6,2" rx="4" ry="4" height="339.666"/>
      <rect x="254" y="238" clip-path="url(#clipPath2)" fill="none" width="241" rx="4" ry="4" height="66"/>
      <text x="339.8015" font-size="15px" y="276.6689" clip-path="url(#clipPath2)" font-family="sans-serif" stroke="none" font-weight="bold" xml:space="preserve">Selection</text>
      <rect x="254" y="340" clip-path="url(#clipPath2)" fill="none" width="241" rx="4" ry="4" height="66"/>
      <text x="306.0845" font-size="15px" y="369.8359" clip-path="url(#clipPath2)" font-family="sans-serif" stroke="none" font-weight="bold" xml:space="preserve">Genetic operation</text>
      <text x="292.1428" font-size="15px" y="387.502" clip-path="url(#clipPath2)" font-family="sans-serif" stroke="none" font-weight="bold" xml:space="preserve">(mutation/crossover)</text>
      <rect x="254" y="442" clip-path="url(#clipPath2)" fill="none" width="241" rx="4" ry="4" height="66"/>
      <text x="304.2205" font-size="15px" y="480.6689" clip-path="url(#clipPath2)" font-family="sans-serif" stroke="none" font-weight="bold" xml:space="preserve">Fitness evaluation</text>
      <path fill="none" d="M614.5 475 L681.5 420.5 L748.5 475 L681.5 529.5 Z" clip-path="url(#clipPath2)" fill-rule="evenodd"/>
      <text x="631.8088" font-size="15px" y="471.8359" clip-path="url(#clipPath2)" font-family="sans-serif" stroke="none" font-weight="bold" xml:space="preserve">Termination </text>
      <text x="645.1902" font-size="15px" y="489.502" clip-path="url(#clipPath2)" font-family="sans-serif" stroke="none" font-weight="bold" xml:space="preserve">condition</text>
      <text x="687.8523" font-size="15px" y="411.1689" clip-path="url(#clipPath2)" font-family="sans-serif" font-style="italic" stroke="none" xml:space="preserve">No</text>
      <text x="689.3254" font-size="15px" y="550.1689" clip-path="url(#clipPath2)" font-family="sans-serif" font-style="italic" stroke="none" xml:space="preserve">Yes</text>
      <path fill="none" d="M374.5 151.0028 L374.5 229.9832" clip-path="url(#clipPath2)"/>
      <path d="M374.5 237.9832 L379.5 225.9832 L374.5 228.9832 L369.5 225.9832 Z" clip-path="url(#clipPath2)" stroke="none"/>
      <path fill="none" d="M374.5 304.0205 L374.5 332.0259" clip-path="url(#clipPath2)"/>
      <path d="M374.5 340.0259 L379.5 328.0259 L374.5 331.0259 L369.5 328.0259 Z" clip-path="url(#clipPath2)" stroke="none"/>
      <path fill="none" d="M374.5 406.0205 L374.5 434.0259" clip-path="url(#clipPath2)"/>
      <path d="M374.5 442.0259 L379.5 430.0259 L374.5 433.0259 L369.5 430.0259 Z" clip-path="url(#clipPath2)" stroke="none"/>
      <path fill="none" d="M494.984 475 L606.5164 475" clip-path="url(#clipPath2)"/>
      <path d="M614.5164 475 L602.5164 470 L605.5164 475 L602.5164 480 Z" clip-path="url(#clipPath2)" stroke="none"/>
      <path fill="none" d="M681.5 420.4639 L681.5 271 L677 271 L502.9904 271" clip-path="url(#clipPath2)"/>
      <path d="M494.9904 271 L506.9904 276 L503.9904 271 L506.9904 266 Z" clip-path="url(#clipPath2)" stroke="none"/>
      <path fill="none" d="M681.5 529.5032 L681.5 570" clip-path="url(#clipPath2)"/>
      <path d="M681.5 578 L686.5 566 L681.5 569 L676.5 566 Z" clip-path="url(#clipPath2)" stroke="none"/>
    </g>
  </g>
</svg>
